src/components/icon/imgur-post.svg

<svg xmlns="http://www.w3.org/2000/svg" width="16" height="16" viewBox="0 0 40 40">
<path d="M8.10974171,17 L2,17 C0.8954305,17 4.27137975e-16,16.1045695 2.91867225e-16,15 L2.91867225e-16,8.49982909 C0.000105314875,8.49993192 0.000212126541,8.49998888 0.00032043457,8.5 C0.789001465,7.75764465 2.44887504,6.14671782 2.78045654,5.76989746 C3.15057373,5.34928385 3.52667236,4.90631104 3.90875244,4.440979 C3.27655029,4.88332113 2.80503337,5.24098714 2.49420166,5.51397705 C2.18336995,5.78696696 1.3519694,6.54789225 2.82326246e-16,7.79675293 L2.91867225e-16,2 C1.56596475e-16,0.8954305 0.8954305,2.02906125e-16 2,0 L15,0 C16.1045695,-2.02906125e-16 17,0.8954305 17,2 L17,15 C17,16.1045695 16.1045695,17 15,17 L8.74192814,17 C8.82070139,16.999319 8.90672565,16.998495 9,16.9975281 C10.115084,15.8925317 10.8612795,15.152104 11.2385864,14.7762451 C11.6158933,14.4003862 12.0567503,13.8894406 12.5611572,13.2434082 C11.9148763,13.6974691 11.3615112,14.125 10.901062,14.526001 C10.548015,14.8334664 8.76687622,16.3866577 8.1000061,16.9983978 C8.0998439,16.9989991 8.10308909,16.9995331 8.1097417,17 Z M10.3583385,11.0131873 L12.1413848,12.848418 C12.2521617,12.9624371 12.4105572,13.0169834 12.5680493,12.9953477 C13.2307943,12.9043018 13.5535292,12.2292555 13.7203267,11.0531814 C13.8863968,9.88223667 13.8438453,4.62551089 13.8000488,4.05450439 C13.7625602,3.56573759 13.5580657,3.16073217 13.0195201,3.15430026 C10.8063965,3.12786865 9.40865989,3.20622775 7.30059814,3.30157471 C6.19461046,3.35159818 5.30765535,3.46693782 4.56204061,3.68716653 C4.4112793,3.73169619 4.29023753,3.84453505 4.23525496,3.99180617 C4.09980297,4.35461513 4.16786181,4.71724604 4.45530023,4.96653586 C4.54232637,5.04201196 5.11423653,5.65224504 6.10093756,6.72519326 L2.50636364,10.3298652 C2.34398429,10.4927007 2.31361096,10.7452957 2.43275934,10.9419835 C2.81604093,11.5746975 3.36540187,12.2284372 4.08003608,12.9065285 C4.78287842,13.5734309 5.46874355,14.1359371 6.13834175,14.5938678 C6.33554292,14.7287315 6.60060059,14.7052457 6.77101601,14.5378089 L10.3583385,11.0131873 Z M30.658853,23.1637136 L32.5577235,21.2628435 L29.713048,18.4362365 L27.819713,20.3315652 C27.8198858,20.3317373 27.8200586,20.3319095 27.8202313,20.3320818 L30.658853,23.1637136 Z M29.2307231,24.5933474 L26.3915833,21.7611988 L17.7523063,30.4095732 L17.2259843,33.7746343 L20.5969577,33.2362043 L29.2307231,24.5933474 Z M21.7983015,34.8929581 C21.6474734,35.0439981 21.4525672,35.1435078 21.2415383,35.1772145 L16.1718929,35.9869654 C15.4935326,36.0953167 14.9065164,35.5120819 15.0124229,34.8349644 L15.8039548,29.7742732 C15.8369077,29.5635876 15.9359168,29.3687295 16.0867759,29.2176585 L28.9935606,16.2969491 C29.3878524,15.902103 30.0283634,15.9008609 30.4241913,16.2941746 L34.7023049,20.5451149 C35.0981429,20.9384387 35.0993882,21.5773925 34.7050862,21.9722487 L21.7983015,34.8929581 Z M37,12 C38.6568542,12 40,13.3431458 40,15 L40,37 C40,38.6568542 38.6568542,40 37,40 L11,40 C9.34314575,40 8,38.6568542 8,37 L8,21.0452881 C8,20.4477153 8.44771525,20 9,20 C9.55228475,20 10,20.4477153 10,21 C10,21.0101182 10,26.3434516 10,37 C10,37.5522847 10.4477153,38 11,38 L37,38 C37.5522847,38 38,37.5522847 38,37 L38,15 C38,14.4477153 37.5522847,14 37,14 L21,14 C20.4477153,14 20,13.5522847 20,13 C20,12.4477153 20.4477153,12 21,12 L37,12 Z"/>
</svg>

<svg xmlns="http://www.w3.org/2000/svg" width="16" height="16" viewBox="0 0 40 40"><path d="M8.11 17H2a2 2 0 0 1-2-2V8.5C.79 7.758 2.45 6.147 2.78 5.77c.37-.42.747-.864 1.129-1.329-.632.442-1.104.8-1.415 1.073-.31.273-1.142 1.034-2.494 2.283V2a2 2 0 0 1 2-2h13a2 2 0 0 1 2 2v13a2 2 0 0 1-2 2H8.742L9 16.998c1.115-1.105 1.861-1.846 2.239-2.222.377-.376.818-.887 1.322-1.533-.646.454-1.2.882-1.66 1.283-.353.307-2.134 1.86-2.801 2.472 0 .001.003.002.01.002zm2.248-5.987l1.783 1.835a.5.5 0 0 0 .427.147c.663-.09.986-.766 1.152-1.942.166-1.17.124-6.427.08-6.998-.037-.49-.242-.894-.78-.9-2.214-.027-3.611.051-5.72.147-1.105.05-1.992.165-2.738.385a.5.5 0 0 0-.327.305c-.135.363-.067.725.22.975.087.075.66.685 1.646 1.758L2.506 10.33a.5.5 0 0 0-.073.612c.383.633.932 1.286 1.647 1.965.703.666 1.389 1.229 2.058 1.687a.5.5 0 0 0 .633-.056l3.587-3.525zm20.3 12.15l1.9-1.9-2.845-2.827-1.893 1.896 2.839 2.832zm-1.427 1.43l-2.84-2.832-8.639 8.649-.526 3.365 3.371-.539 8.634-8.643zm-7.433 10.3c-.15.151-.345.25-.556.284l-5.07.81a1.01 1.01 0 0 1-1.16-1.152l.792-5.06c.033-.211.132-.406.283-.557l12.907-12.921a1.013 1.013 0 0 1 1.43-.003l4.278 4.251c.396.393.397 1.032.003 1.427L21.798 34.893zM37 12a3 3 0 0 1 3 3v22a3 3 0 0 1-3 3H11a3 3 0 0 1-3-3V21.045C8 20.448 8.448 20 9 20a1 1 0 0 1 1 1v16a1 1 0 0 0 1 1h26a1 1 0 0 0 1-1V15a1 1 0 0 0-1-1H21a1 1 0 0 1 0-2h16z"/></svg>
